symbols/web/beenhere/materialsymbolsrounded/beenhere_wght100grad200fill1_20px.svg

<svg xmlns="http://www.w3.org/2000/svg" height="20" width="20"><path d="M10 18.229q-.208 0-.406-.062-.198-.063-.344-.188l-4.979-3.771q-.25-.166-.365-.416-.114-.25-.114-.542V3.833q0-.791.541-1.333.542-.542 1.334-.542h8.666q.792 0 1.334.542.541.542.541 1.333v9.417q0 .292-.114.542-.115.25-.365.416l-4.979 3.771q-.146.125-.344.188-.198.062-.406.062Zm-.875-6.5q.167 0 .344-.083.177-.084.323-.229l3.354-3.355q.166-.166.198-.427.031-.26-.198-.447-.188-.188-.417-.167-.229.021-.417.208l-3.187 3.188-1.437-1.438q-.084-.083-.198-.125-.115-.042-.23-.042-.114 0-.218.042t-.188.125q-.187.188-.166.417.02.229.208.416l1.562 1.605q.146.145.323.229.177.083.344.083Z"/></svg>

<svg xmlns="http://www.w3.org/2000/svg" height="20" width="20"><path d="M10 18.229Q9.792 18.229 9.594 18.167Q9.396 18.104 9.25 17.979L4.271 14.208Q4.021 14.042 3.906 13.792Q3.792 13.542 3.792 13.25V3.833Q3.792 3.042 4.333 2.5Q4.875 1.958 5.667 1.958H14.333Q15.125 1.958 15.667 2.5Q16.208 3.042 16.208 3.833V13.25Q16.208 13.542 16.094 13.792Q15.979 14.042 15.729 14.208L10.75 17.979Q10.604 18.104 10.406 18.167Q10.208 18.229 10 18.229ZM9.125 11.729Q9.292 11.729 9.469 11.646Q9.646 11.562 9.792 11.417L13.146 8.062Q13.312 7.896 13.344 7.635Q13.375 7.375 13.146 7.188Q12.958 7 12.729 7.021Q12.5 7.042 12.312 7.229L9.125 10.417L7.688 8.979Q7.604 8.896 7.49 8.854Q7.375 8.812 7.26 8.812Q7.146 8.812 7.042 8.854Q6.938 8.896 6.854 8.979Q6.667 9.167 6.688 9.396Q6.708 9.625 6.896 9.812L8.458 11.417Q8.604 11.562 8.781 11.646Q8.958 11.729 9.125 11.729Z"/></svg>
